X:1
T:Songs of Praise, 77.77
T:Songs of Praise, 77.77
T:Horatio Richmond Palmer, 1891
T:Public Domain Courtesy of the Cyber Hymnal™
C:Horatio Richmond Palmer, 1891
Z:Public Domain
Z:Courtesy of the Cyber Hymnal™
%%score ( 1 2 ) ( 3 4 )
L:1/8
Q:1/4=110
M:4/4
K:C
V:1 treble 
V:2 treble 
V:3 bass 
V:4 bass 
V:1
 C3 E G2 G2 | A2 c2 c4 | [Ge]3 [Af] [Ge]2 [Ec]2 | [FB]2 [Ec]2 [Gd]4 | C3 E G2 G2 | A2 c2 c4 | %6
 [Ge]3 [Fd] [Ec]2 [Fd]2 | [Ec]2 [DB]2 [Ec]4 |] %8
V:2
 C3 E G2 G2 | A2 c2 c4 | x8 | x8 | C3 E G2 G2 | A2 c2 c4 | x8 | x8 |] %8
V:3
 C,3 E, G,2 G,2 | A,2 C2 C4 | C3 C C2 C2 | [G,D]2 [G,C]2 [G,B,]4 | C,3 E, G,2 G,2 | A,2 C2 C4 | %6
 C3 [G,B,] [A,C]2 [F,A,]2 | G,2 G,2 [C,G,]4 |] %8
V:4
 C,3 E, G,2 G,2 | A,2 C2 C4 | C3 C C2 C2 | x8 | C,3 E, G,2 G,2 | A,2 C2 C4 | C3 x5 | G,2 G,2 x4 |] %8

